X:1
T:Old 100th (Doxology)
C:Louis Bourgeois
M:4/4
L:1/4
Q:1/4=88
K:C
!f!!maestoso! C2 C B, | A,2 G,2 | C2 D E | D2 C2 |
!mf! E2 E E | D2 C2 | F2 E D | C2 B,2 |
!f! C2 D E | D2 C2 | E2 F G | A2 G2 |
!ff! G2 E C | D2 E2 | D2 C B, | C4 |]
w: Praise God from whom all bles-sings flow. Praise Him all crea-tures here be-low. Praise Him a-bove ye heav'n-ly host. Praise Fa-ther Son and Ho-ly Ghost.
